src/assets/close.svg

<svg fill="none" height="24" viewBox="0 0 24 24" width="24" xmlns="http://www.w3.org/2000/svg"><path d="m13.4139 11.9999 5.793-5.79303c.39-.39.39-1.02299 0-1.41399s-1.023-.39-1.414 0l-5.793 5.79302-5.79303-5.79302c-.39-.39-1.02299-.39-1.41399 0s-.39 1.02299 0 1.41399l5.79302 5.79303-5.79302 5.793c-.39.39-.39 1.023 0 1.414.195.195.44999.293.70699.293s.512-.098.707-.293l5.79303-5.793 5.793 5.793c.195.195.45.293.707.293s.512-.098.707-.293c.39-.39.39-1.023 0-1.414z" fill="#07101b"/></svg>

<svg width="24" height="24" viewBox="0 0 24 24" fill="none" xmlns="http://www.w3.org/2000/svg">
<path d="M13.4139 11.9999L19.2069 6.20687C19.5969 5.81687 19.5969 5.18388 19.2069 4.79288C18.8169 4.40188 18.1839 4.40288 17.7929 4.79288L11.9999 10.5859L6.20687 4.79288C5.81687 4.40288 5.18388 4.40288 4.79288 4.79288C4.40188 5.18288 4.40288 5.81587 4.79288 6.20687L10.5859 11.9999L4.79288 17.7929C4.40288 18.1829 4.40288 18.8159 4.79288 19.2069C4.98788 19.4019 5.24287 19.4999 5.49987 19.4999C5.75687 19.4999 6.01187 19.4019 6.20687 19.2069L11.9999 13.4139L17.7929 19.2069C17.9879 19.4019 18.2429 19.4999 18.4999 19.4999C18.7569 19.4999 19.0119 19.4019 19.2069 19.2069C19.5969 18.8169 19.5969 18.1839 19.2069 17.7929L13.4139 11.9999Z" fill="#07101B"/>
</svg>
